X:1
T:Sweet and low
T:Sweet and low
T:Joseph Barnby (1838-1896)
T:Alfred Tennyson
C:Joseph Barnby (1838-1896)
Z:Alfred Tennyson
%%score [ 1 2 3 4 ]
L:1/8
Q:1/4=50
M:6/8
K:Bb
V:1 treble nm="Soprano"
V:2 treble nm="Alto"
V:3 treble-8 nm="Tenor"
V:4 bass nm="Bass"
V:1
"^Larghetto"!pp! D2 D G3 | F2 F B3 | B A G (F>F) =E | (G3 F2) z | %4
w: 1.Sweet and low,|sweet and low,|Wind of the west- * ern|sea, _|
w: 2.Sleep and rest,|sleep and rest,|Fa- ther will come to thee|soon; _|
!<(!!>(! D3!<)!!>)!!<(! G2!<)!!>(! G!>)! |!<(! F2!<)! D !fermata!G3 | c A B (G>F) A | (G3 F2) z | %8
w: Low, low, _|breathe and blow,|Wind of the west- * ern|sea! _|
w: Reas, rest, on|mo- ther's breast,|Fa- ther will come to thee|soon; _|
!mf! F A G (FG) F | (FB) G F3 |!pp! (FA) G (FG) F | (FB) !>!=E F3 |!f! B B B B2 A | %13
w: Ov- er the roll- * ing|wa- * ters go,|Come from the dy- * ing|moon, _ and blow,|Blow him a- gain to|
w: Fa- ther will come to his|babe in the nest,|Sil- * ver sails _ all|out of the west|Un- der the sil- ver|
!>(! (G3!>)! !fermata!_G3) |!p! F2 F F3/2"^dim." G/ F | F2 F F3/2 G/ F |!pp!!>(! B6- | %17
w: me, _|While my lit- tle one,|while my pret- ty one,|sleeps.|
w: moon! _|Sleep, my lit- tle one,|sleep my pret- ty one,|sleep.|
 B3- B2 z!>)! |] %18
w: _ _|
w: _ _|
V:2
!pp! D2 D ^C3 | D2 D E3 | D D D (C>C) C | C3- C2 z |!<(!!>(! D3!<)!!>)!!<(! ^C2!<)!!>(! C!>)! | %5
w: 1.Sweet and low,|sweet and low,|Wind of the west- * ern|sea, _|Low, low, _|
w: 2.Sleep and rest,|sleep and rest,|Fa- ther will come to thee|soon; _|Reas, rest, on|
!<(! D2!<)! D !fermata!=E3 | F F F (F>F) =E | (=E3 F2) z |!mf! _E3 E2 E | (DD) ^C D3 | %10
w: breathe and blow,|Wind of the west- * ern|sea! _|Ov- er the|wa- * ters go,|
w: mo- ther's breast,|Fa- ther will come to thee|soon; _|Fa- ther, his|babe in the nest,|
!pp! (E2 E) E2 E | (DD) !>!^C D3 |!f! B, D G ^F2 F |!>(! (G3!>)! !fermata!B,3) | %14
w: Come * from the|moon, _ and blow,|Blow him a- gain to|me, _|
w: Sil- ver sails out|out of the west|Un- der the sil- ver|moon! _|
!p! B,2 D C3/2"^dim." C/ C | B,2 B, E3/2 E/ E |!pp!!>(! (D3 E3 | D3- D2) z!>)! |] %18
w: While my lit- tle one,|while my pret- ty one,|sleeps. _|_ _|
w: Sleep, my lit- tle one,|sleep my pret- ty one,|sleep. _|_ _|
V:3
!pp! F2 F =E3 | F2 F G3 | F c B (A>A) G | (B3 A2) z |!<(!!>(! F3!<)!!>)!!<(! =E2!<)!!>(! E!>)! | %5
w: 1.Sweet and low,|sweet and low,|Wind of the west- * ern|sea, _|Low, low, _|
w: 2.Sleep and rest,|sleep and rest,|Fa- ther will come to thee|soon; _|Reas, rest, on|
!<(! F2!<)! d !fermata!c3 | c c B (d>d) c | (B3 A2) z |!mf! c A B (cB) c | (BB) B B3 | %10
w: breathe and blow,|Wind of the west- * ern|sea! _|Ov- er the roll- * ing|wa- * ters go,|
w: mo- ther's breast,|Fa- ther will come to thee|soon; _|Fa- ther will come to his|babe in the nest,|
!pp! (AF) G (AG) A | (BF) !>!G F3 |!f! G B d d2 c |!>(! (B3!>)! !fermata!_d3) | %14
w: Come from the dy- * ing|moon, _ and blow,|Blow him a- gain to|me, _|
w: Sil- * ver sails _ all|out of the west|Un- der the sil- ver|moon! _|
!p! =d2 B A3/2"^dim." A/ A | B2 B A3/2 A/ _A |!pp!!>(! (_A3 G2 _G | F3- F2) z!>)! |] %18
w: While my lit- tle one,|while my pret- ty one,|sleeps. _ _|_ _|
w: Sleep, my lit- tle one,|sleep my pret- ty one,|sleep. _ _|_ _|
V:4
!pp! B,,2 B,, B,,3 | B,,2 B,, B,,3 | B,, B,, B,, (C,>C,) C, | F,3- F,2 z | %4
w: 1.Sweet and low,|sweet and low,|Wind of the west- * ern|sea, _|
w: 2.Sleep and rest,|sleep and rest,|Fa- ther will come to thee|soon; _|
!<(!!>(! B,,3!<)!!>)!!<(! B,,2!<)!!>(! B,,!>)! |!<(! B,,2!<)! B,, !fermata!B,3 | %6
w: Low, low, _|breathe and blow,|
w: Reas, rest, on|mo- ther's breast,|
 A, F, D, (B,,>B,,) C, | F,3- F,2 z |!mf! A, F, G, (A,G,) A, | (B,D,) =E, F,3 | %10
w: Wind of the west- * ern|sea! _|Ov- er the roll- * ing|wa- * ters go,|
w: Fa- ther will come to thee|soon; _|Fa- ther will come to his|babe in the nest,|
!pp! (B,,2 B,,) B,,2 B,, | (B,,B,,) !>!B,, B,,3 |!f! G,, G,, B,, D,2 D, | %13
w: Come * from the|moon, _ and blow,|Blow him a- gain to|
w: Sil- ver sails out|out of the west|Un- der the sil- ver|
!>(! (E,3!>)! !fermata!=E,3) |!p! F,2 F, E,3/2"^dim." E,/ E, | D,2 _D, C,3/2 C,/ _C, | %16
w: me, _|While my lit- tle one,|while my pret- ty one,|
w: moon! _|Sleep, my lit- tle one,|sleep my pret- ty one,|
!pp!!>(! B,,6- | B,,3- B,,2 z!>)! |] %18
w: sleeps.|_ _|
w: sleep.|_ _|

